app/component-library/components/Icons/Icon/assets/graph.svg

<svg width="24" height="24" viewBox="0 0 24 24" fill="none" xmlns="http://www.w3.org/2000/svg">
<path d="M21.9509 6.9499C21.3109 4.7799 19.5009 2.9699 17.3309 2.3299C15.6809 1.8499 14.5409 1.8899 13.7509 2.4799C12.8009 3.1899 12.6909 4.4699 12.6909 5.3799V7.8699C12.6909 10.3299 13.8109 11.5799 16.0109 11.5799H18.8809C19.7809 11.5799 21.0709 11.4699 21.7809 10.5199C22.3909 9.7399 22.4409 8.5999 21.9509 6.9499Z" fill="currentColor"/>
<path d="M19.1907 13.3601C18.9307 13.0601 18.5507 12.8902 18.1607 12.8902H14.5807C12.8207 12.8902 11.3907 11.4601 11.3907 9.70015V6.12015C11.3907 5.73015 11.2207 5.35015 10.9207 5.09015C10.6307 4.83015 10.2307 4.71015 9.85066 4.76015C7.50066 5.06015 5.34066 6.35015 3.93066 8.29015C2.51066 10.2402 1.99066 12.6201 2.44066 15.0001C3.09066 18.4401 5.84066 21.1902 9.29066 21.8402C9.84066 21.9502 10.3907 22.0002 10.9407 22.0002C12.7507 22.0002 14.5007 21.4402 15.9907 20.3502C17.9307 18.9402 19.2207 16.7801 19.5207 14.4302C19.5707 14.0401 19.4507 13.6501 19.1907 13.3601Z" fill="currentColor"/>
</svg>

<svg xmlns="http://www.w3.org/2000/svg" width="24" height="24" viewBox="0 0 24 24" fill="none"><path d="M21.95 6.95c-.64-2.17-2.45-3.98-4.62-4.62-1.65-.48-2.79-.44-3.58.15-.95.71-1.06 1.99-1.06 2.9v2.49c0 2.46 1.12 3.71 3.32 3.71h2.87c.9 0 2.19-.11 2.9-1.06.61-.78.66-1.92.17-3.57z" fill="currentColor"/><path d="M19.19 13.36c-.26-.3-.64-.47-1.03-.47h-3.58c-1.76 0-3.19-1.43-3.19-3.19V6.12c0-.39-.17-.77-.47-1.03-.29-.26-.69-.38-1.07-.33-2.35.3-4.51 1.59-5.92 3.53-1.42 1.95-1.94 4.33-1.49 6.71.65 3.44 3.4 6.19 6.85 6.84.55.11 1.1.16 1.65.16 1.81 0 3.56-.56 5.05-1.65 1.94-1.41 3.23-3.57 3.53-5.92.05-.39-.07-.78-.33-1.07z" fill="currentColor"/></svg>
